build/images/g29.svg

<svg width="138" height="138" viewBox="0 0 138 138" fill="none" xmlns="http://www.w3.org/2000/svg">
<circle cx="69" cy="69" r="69" fill="#76BD5E"/>
<path d="M106 92.2579C106 92.2423 106 92.2423 106 92.2268C106 92.1957 106 92.1646 106 92.149C106 92.1335 106 92.1024 106 92.0868V92.0713L102.517 44.5171C102.33 41.9667 100.184 39.9762 97.6337 39.9762H79.8747V38.6544C79.8747 36.6328 78.2419 35 76.2203 35H63.7797C61.7581 35 60.1253 36.6328 60.1253 38.6544V39.9762H42.3663C39.816 39.9762 37.67 41.9667 37.4834 44.5171L34 92.0713V92.0868C34 92.1024 34 92.1335 34 92.149C34 92.1801 34 92.2112 34 92.2268C34 92.2423 34 92.2423 34 92.2579C34 92.3201 34.0156 92.3667 34.0311 92.4134V92.4289L36.0527 100.5C36.457 102.133 37.9188 103.268 39.5983 103.268H40.2203V104.59C40.2203 105.911 41.3089 107 42.6307 107H45.1188C46.4406 107 47.5292 105.911 47.5292 104.59V103.268H92.4708V104.59C92.4708 105.911 93.5594 107 94.8812 107H97.3693C98.6911 107 99.7797 105.911 99.7797 104.59V103.268H100.402C102.081 103.268 103.543 102.133 103.947 100.5L105.969 92.4289V92.4134C105.984 92.3667 105.984 92.3045 106 92.2579ZM103.574 90.9827H92.3153V52.2613H100.744L103.574 90.9827ZM50.0173 90.9827V52.2613H57.6371V53.5832C57.6371 55.6048 59.27 57.2376 61.2916 57.2376H78.7084C80.73 57.2376 82.3629 55.6048 82.3629 53.5832V52.2613H89.9827V90.9827H50.0173ZM80.0302 52.2613V53.5832C80.0302 54.314 79.4393 54.905 78.7084 54.905H61.2916C60.5607 54.905 59.9698 54.314 59.9698 53.5832V52.2613H80.0302ZM62.4579 38.6544C62.4579 37.9235 63.0488 37.3326 63.7797 37.3326H76.2203C76.9512 37.3326 77.5421 37.9235 77.5421 38.6544V39.9762H62.4579V38.6544ZM42.3663 42.3089H97.6337C98.9711 42.3089 100.091 43.3508 100.2 44.6881L100.588 49.9287H39.4272L39.816 44.6881C39.9093 43.3508 41.0289 42.3089 42.3663 42.3089ZM39.2562 52.2613H47.6847V90.9827H36.4259L39.2562 52.2613ZM45.1965 104.59C45.1965 104.636 45.1654 104.667 45.1188 104.667H42.6307C42.584 104.667 42.5529 104.636 42.5529 104.59V103.268H45.1965V104.59ZM97.4471 104.59C97.4471 104.636 97.416 104.667 97.3693 104.667H94.8812C94.8346 104.667 94.8035 104.636 94.8035 104.59V103.268H97.4471V104.59ZM101.692 99.94C101.552 100.531 101.024 100.935 100.417 100.935H39.5983C38.9918 100.935 38.4631 100.531 38.3231 99.94L36.6592 93.3153H103.341L101.692 99.94Z" fill="white"/>
<path d="M69.9999 73.5659C65.9256 73.5659 62.6133 76.8782 62.6133 80.9525C62.6133 85.0268 65.9256 88.3391 69.9999 88.3391C74.0742 88.3391 77.3865 85.0268 77.3865 80.9525C77.3865 76.8782 74.0742 73.5659 69.9999 73.5659ZM75.0539 80.9525C75.0539 81.9322 74.774 82.8342 74.2919 83.6117L67.3407 76.6605C68.1182 76.1784 69.0202 75.9141 69.9843 75.9141C72.7835 75.8985 75.0539 78.1689 75.0539 80.9525ZM64.9459 80.9525C64.9459 79.9728 65.2258 79.0709 65.7079 78.2933L72.6591 85.2445C71.8815 85.7266 70.9796 85.991 70.0154 85.991C67.2163 86.0065 64.9459 83.7361 64.9459 80.9525Z" fill="white"/>
<path d="M56.3153 81.0303C54.2937 81.0303 52.6609 82.6631 52.6609 84.6847C52.6609 86.7063 54.2937 88.3391 56.3153 88.3391C58.3369 88.3391 59.9697 86.7063 59.9697 84.6847C59.9697 82.6631 58.3369 81.0303 56.3153 81.0303ZM56.3153 86.0065C55.5844 86.0065 54.9935 85.4156 54.9935 84.6847C54.9935 83.9538 55.5844 83.3629 56.3153 83.3629C57.0462 83.3629 57.6371 83.9538 57.6371 84.6847C57.6371 85.4156 57.0462 86.0065 56.3153 86.0065Z" fill="white"/>
<path d="M56.3153 71.0778C54.2937 71.0778 52.6609 72.7106 52.6609 74.7322C52.6609 76.7538 54.2937 78.3866 56.3153 78.3866C58.3369 78.3866 59.9697 76.7538 59.9697 74.7322C59.9697 72.7106 58.3369 71.0778 56.3153 71.0778ZM56.3153 76.054C55.5844 76.054 54.9935 75.4631 54.9935 74.7322C54.9935 74.0013 55.5844 73.4104 56.3153 73.4104C57.0462 73.4104 57.6371 74.0013 57.6371 74.7322C57.6371 75.4631 57.0462 76.054 56.3153 76.054Z" fill="white"/>
<path d="M56.3153 61.1252C54.2937 61.1252 52.6609 62.7581 52.6609 64.7797C52.6609 66.8013 54.2937 68.4341 56.3153 68.4341C58.3369 68.4341 59.9697 66.8013 59.9697 64.7797C59.9697 62.7581 58.3369 61.1252 56.3153 61.1252ZM56.3153 66.1015C55.5844 66.1015 54.9935 65.5106 54.9935 64.7797C54.9935 64.0488 55.5844 63.4579 56.3153 63.4579C57.0462 63.4579 57.6371 64.0488 57.6371 64.7797C57.6371 65.5106 57.0462 66.1015 56.3153 66.1015Z" fill="white"/>
<path d="M83.6847 81.0303C81.6631 81.0303 80.0303 82.6631 80.0303 84.6847C80.0303 86.7063 81.6631 88.3391 83.6847 88.3391C85.7063 88.3391 87.3391 86.7063 87.3391 84.6847C87.3391 82.6631 85.7063 81.0303 83.6847 81.0303ZM83.6847 86.0065C82.9538 86.0065 82.3629 85.4156 82.3629 84.6847C82.3629 83.9538 82.9538 83.3629 83.6847 83.3629C84.4156 83.3629 85.0065 83.9538 85.0065 84.6847C85.0065 85.4156 84.4156 86.0065 83.6847 86.0065Z" fill="white"/>
<path d="M83.6847 71.0778C81.6631 71.0778 80.0303 72.7106 80.0303 74.7322C80.0303 76.7538 81.6631 78.3866 83.6847 78.3866C85.7063 78.3866 87.3391 76.7538 87.3391 74.7322C87.3391 72.7106 85.7063 71.0778 83.6847 71.0778ZM83.6847 76.054C82.9538 76.054 82.3629 75.4631 82.3629 74.7322C82.3629 74.0013 82.9538 73.4104 83.6847 73.4104C84.4156 73.4104 85.0065 74.0013 85.0065 74.7322C85.0065 75.4631 84.4156 76.054 83.6847 76.054Z" fill="white"/>
<path d="M83.6847 68.4341C85.7063 68.4341 87.3391 66.8013 87.3391 64.7797C87.3391 62.7581 85.7063 61.1252 83.6847 61.1252C81.6631 61.1252 80.0303 62.7581 80.0303 64.7797C80.0303 66.8013 81.6631 68.4341 83.6847 68.4341ZM83.6847 63.4579C84.4156 63.4579 85.0065 64.0488 85.0065 64.7797C85.0065 65.5106 84.4156 66.1015 83.6847 66.1015C82.9538 66.1015 82.3629 65.5106 82.3629 64.7797C82.3629 64.0488 82.9538 63.4579 83.6847 63.4579Z" fill="white"/>
<path d="M74.9761 59.8812H65.0236C63.7018 59.8812 62.6133 60.9698 62.6133 62.2916V67.2678C62.6133 68.5897 63.7018 69.6782 65.0236 69.6782H74.9761C76.2979 69.6782 77.3865 68.5897 77.3865 67.2678V62.2916C77.3865 60.9698 76.2979 59.8812 74.9761 59.8812ZM75.0539 67.2678C75.0539 67.3145 75.0228 67.3456 74.9761 67.3456H65.0236C64.977 67.3456 64.9459 67.3145 64.9459 67.2678V62.2916C64.9459 62.2449 64.977 62.2138 65.0236 62.2138H74.9761C75.0228 62.2138 75.0539 62.2449 75.0539 62.2916V67.2678Z" fill="white"/>
</svg>

<svg width="138" height="138" fill="none" xmlns="http://www.w3.org/2000/svg"><circle cx="69" cy="69" r="69" fill="#76BD5E"/><path d="M106 92.258v-.187l-3.483-47.554a4.915 4.915 0 00-4.883-4.54h-17.76v-1.323A3.65 3.65 0 0076.22 35H63.78a3.65 3.65 0 00-3.655 3.654v1.322H42.366a4.914 4.914 0 00-4.883 4.541L34 92.071v.186c0 .063.016.11.031.156v.016l2.022 8.071a3.644 3.644 0 003.545 2.768h.622v1.322a2.423 2.423 0 002.41 2.41h2.489a2.423 2.423 0 002.41-2.41v-1.322h44.942v1.322a2.423 2.423 0 002.41 2.41h2.488a2.423 2.423 0 002.41-2.41v-1.322h.623a3.643 3.643 0 003.545-2.768l2.022-8.071v-.016c.015-.046.015-.108.031-.155zm-2.426-1.275H92.315V52.26h8.429l2.83 38.722zm-53.557 0V52.26h7.62v1.322a3.65 3.65 0 003.655 3.655h17.416a3.65 3.65 0 003.655-3.655V52.26h7.62v38.722H50.017zM80.03 52.26v1.322a1.32 1.32 0 01-1.322 1.322H61.292a1.32 1.32 0 01-1.322-1.322V52.26h20.06zM62.458 38.654c0-.73.59-1.321 1.322-1.321h12.44c.731 0 1.322.59 1.322 1.321v1.322H62.458v-1.322zM42.366 42.31h55.268a2.589 2.589 0 012.566 2.38l.388 5.24h-61.16l.388-5.24a2.562 2.562 0 012.55-2.38zm-3.11 9.952h8.429v38.722h-11.26l2.831-38.722zm5.94 52.329c0 .046-.03.077-.077.077H42.63c-.047 0-.078-.031-.078-.077v-1.322h2.644v1.322zm52.251 0c0 .046-.031.077-.078.077h-2.488c-.046 0-.078-.031-.078-.077v-1.322h2.644v1.322zm4.245-4.65c-.14.591-.668.995-1.275.995H39.598a1.3 1.3 0 01-1.275-.995l-1.664-6.625h66.682l-1.649 6.625z" fill="#fff"/><path d="M70 73.566a7.393 7.393 0 00-7.387 7.386A7.393 7.393 0 0070 88.34a7.393 7.393 0 007.386-7.386A7.393 7.393 0 0070 73.566zm5.054 7.386c0 .98-.28 1.882-.762 2.66L67.34 76.66a4.983 4.983 0 012.643-.747 5.044 5.044 0 015.07 5.038zm-10.108 0c0-.98.28-1.881.762-2.659l6.951 6.951a4.983 4.983 0 01-2.644.747 5.044 5.044 0 01-5.07-5.038zm-8.631.078a3.65 3.65 0 00-3.654 3.655 3.65 3.65 0 003.654 3.654 3.65 3.65 0 003.655-3.654 3.65 3.65 0 00-3.655-3.655zm0 4.977a1.32 1.32 0 110-2.644 1.32 1.32 0 110 2.644zm0-14.929a3.65 3.65 0 00-3.654 3.654 3.65 3.65 0 003.654 3.655 3.65 3.65 0 003.655-3.655 3.65 3.65 0 00-3.655-3.654zm0 4.976a1.32 1.32 0 110-2.644 1.32 1.32 0 110 2.644zm0-14.929a3.65 3.65 0 00-3.654 3.655 3.65 3.65 0 003.654 3.654 3.65 3.65 0 003.655-3.654 3.65 3.65 0 00-3.655-3.655zm0 4.977a1.32 1.32 0 110-2.644 1.32 1.32 0 110 2.644zm27.37 14.928a3.65 3.65 0 00-3.655 3.655 3.65 3.65 0 003.655 3.654 3.65 3.65 0 003.654-3.654 3.65 3.65 0 00-3.654-3.655zm0 4.977a1.32 1.32 0 110-2.644 1.32 1.32 0 110 2.644zm0-14.929a3.65 3.65 0 00-3.655 3.654 3.65 3.65 0 003.655 3.655 3.65 3.65 0 003.654-3.655 3.65 3.65 0 00-3.654-3.654zm0 4.976a1.32 1.32 0 110-2.644 1.32 1.32 0 110 2.644zm0-7.62a3.65 3.65 0 003.654-3.654 3.65 3.65 0 00-3.654-3.655 3.65 3.65 0 00-3.655 3.655 3.65 3.65 0 003.655 3.654zm0-4.976a1.32 1.32 0 110 2.644 1.32 1.32 0 110-2.644zm-8.709-3.577h-9.952a2.422 2.422 0 00-2.41 2.41v4.977a2.422 2.422 0 002.41 2.41h9.952a2.423 2.423 0 002.41-2.41v-4.976a2.423 2.423 0 00-2.41-2.41zm.078 7.387a.074.074 0 01-.078.078h-9.952a.074.074 0 01-.078-.078v-4.976c0-.047.031-.078.078-.078h9.952c.047 0 .078.03.078.078v4.976z" fill="#fff"/></svg>
